packages/product-components/src/images/networks/dgb.svg

<svg width="32" height="32" viewBox="0 0 32 32" fill="none" xmlns="http://www.w3.org/2000/svg">
<path d="M0 8C0 3.58172 3.58172 0 8 0H24C28.4183 0 32 3.58172 32 8V24C32 28.4183 28.4183 32 24 32H8C3.58172 32 0 28.4183 0 24V8Z" fill="#1F1F1F"/>
<path d="M6.04011 11.3048H18.4788C18.4788 11.3048 22.7721 11.2647 19.8041 16.803C19.8041 16.803 17.6365 21.1348 12.2603 21.0546L15.1562 13.6568C15.1915 13.5686 15.2043 13.4739 15.1947 13.3809C15.1851 13.2862 15.153 13.1964 15.1016 13.1177C15.0487 13.0375 14.9797 12.9733 14.8963 12.9268C14.8144 12.8819 14.7214 12.8562 14.6267 12.8546L10.8147 12.7904L6 24.5072C6 24.5072 7.60438 24.6676 8.48678 24.5874L8.00547 25.7907H10.2773C10.3414 25.7907 10.4024 25.7731 10.4537 25.7362C10.5051 25.7009 10.5452 25.6495 10.5661 25.5902L10.9752 24.5072L11.9378 24.427L11.3763 25.7907H13.5919C13.6721 25.7907 13.7523 25.7666 13.8213 25.7217C13.8871 25.6752 13.9401 25.6094 13.9689 25.534L14.5866 23.9457C14.5866 23.9457 21.3282 22.8226 24.3781 17.3645C24.3781 17.3645 28.4693 11.024 23.6562 8.7779C22.7176 8.34633 21.7149 8.07519 20.6865 7.97571L21.248 6.58633C21.264 6.54461 21.2721 6.50129 21.2672 6.45637C21.264 6.41145 21.248 6.36974 21.2239 6.33123C21.1983 6.29433 21.1662 6.26385 21.1277 6.24299C21.0876 6.22053 21.0442 6.2109 20.9993 6.2093H18.92L18.2783 7.89389H17.3959L17.8932 6.58633C17.9093 6.54461 17.9141 6.49969 17.9093 6.45477C17.9029 6.41145 17.8868 6.36813 17.8612 6.33123C17.8371 6.29593 17.8034 6.26545 17.7649 6.24299C17.7248 6.22213 17.6815 6.2109 17.6365 6.2093H15.5509L14.9091 7.89389H8.42261C8.24773 7.89389 8.07606 7.94202 7.92525 8.03026C7.77765 8.11851 7.65411 8.24685 7.57229 8.39927L6.04011 11.3048Z" fill="white"/>
</svg>

<svg xmlns="http://www.w3.org/2000/svg" width="32" height="32" viewBox="0 0 32 32" fill="none">
    <path fill="#1F1F1F" d="M0 8a8 8 0 0 1 8-8h16a8 8 0 0 1 8 8v16a8 8 0 0 1-8 8H8a8 8 0 0 1-8-8z"/>
    <path fill="#fff" d="M6.04 11.305h12.44s4.293-.04 1.325 5.498c0 0-2.167 4.332-7.544 4.252l2.896-7.398a.58.58 0 0 0-.054-.54.59.59 0 0 0-.475-.262l-3.812-.065L6 24.507s1.604.16 2.487.08l-.482 1.204h2.272a.3.3 0 0 0 .177-.055.3.3 0 0 0 .112-.146l.41-1.083.962-.08-.562 1.364h2.216a.4.4 0 0 0 .23-.07.4.4 0 0 0 .147-.187l.618-1.588s6.741-1.123 9.791-6.582c0 0 4.091-6.34-.722-8.586a9.2 9.2 0 0 0-2.97-.802l.562-1.39a.276.276 0 0 0-.12-.343.3.3 0 0 0-.129-.034H18.92l-.642 1.685h-.882l.497-1.308q.024-.062.016-.131a.3.3 0 0 0-.144-.212.3.3 0 0 0-.128-.034H15.55l-.642 1.685H8.423a.96.96 0 0 0-.85.505z"/>
</svg>
